24x24/actions/audio-volume-low.svg

<svg viewBox="0 0 24 24" xmlns="http://www.w3.org/2000/svg"><g fill="#8b9cbe"><path d="m11.988 4-4.988 4.99v6.02l4.988 4.99h1.012v-16zm-7.988 5v6h2v-6z"/><path d="m14.865 4.537-.244.977a7 7 0 0 1 4.379 6.486 7 7 0 0 1 -4.38 6.479l.243.974a8 8 0 0 0 5.137-7.453 8 8 0 0 0 -5.135-7.463zm.46 3.744-.54.862a4 4 0 0 1 1.215 2.857 4 4 0 0 1 -1.21 2.861l.538.864a5 5 0 0 0 1.672-3.725 5 5 0 0 0 -1.676-3.719z" fill-opacity=".5"/></g></svg>

<svg xmlns="http://www.w3.org/2000/svg" viewBox="0 0 24 24"><defs id="defs3051"><style type="text/css" id="current-color-scheme">.ColorScheme-Text{color:#8b9cbe}</style></defs><path style="fill:currentColor;fill-opacity:1;stroke:none" d="M11.988 4 7 8.99v6.02L11.988 20H13V4h-1.012zM4 9v6h2V9H4z" class="ColorScheme-Text"/><path style="fill:currentColor;fill-opacity:.5;stroke:none" d="m14.865 4.537-.244.977A7 7 0 0 1 19 12a7 7 0 0 1-4.38 6.479l.243.974A8 8 0 0 0 20 12a8 8 0 0 0-5.135-7.463zm.46 3.744-.54.862A4 4 0 0 1 16 12a4 4 0 0 1-1.21 2.861l.538.864A5 5 0 0 0 17 12a5 5 0 0 0-1.676-3.719z" class="ColorScheme-Text"/></svg>
